packages/core/src/svgs/btsg.svg

<svg width="24" height="24" viewBox="0 0 24 24" fill="none" xmlns="http://www.w3.org/2000/svg">
<g clip-path="url(#clip0_31_7566)">
<path d="M0 0H24V24H0V0Z" fill="url(#paint0_linear_31_7566)"/>
<path d="M8.57157 16.2429V0H6.42871V16.2429C6.42871 16.5043 6.64728 16.7143 6.91728 16.7143H8.083C8.353 16.7143 8.57157 16.5043 8.57157 16.2429ZM12.9173 8.57143C12.6473 8.57143 12.4287 8.81143 12.4287 9.10714V19.1786C12.4287 19.4743 12.6473 19.7143 12.9173 19.7143H14.083C14.353 19.7143 14.5716 19.4743 14.5716 19.1786V9.10714C14.5716 8.81143 14.353 8.57143 14.083 8.57143H12.9173ZM9.91728 9.85714C9.64728 9.85714 9.42871 10.0929 9.42871 10.3886V18.7543C9.42871 19.05 9.64728 19.2857 9.91728 19.2857H11.083C11.353 19.2857 11.5716 19.05 11.5716 18.7543V10.3886C11.5716 10.0929 11.353 9.85714 11.083 9.85714H9.91728ZM15.4287 10.8257C15.4287 10.5257 15.6473 10.2857 15.9173 10.2857H17.083C17.353 10.2857 17.5716 10.5257 17.5716 10.8257V17.8886C17.5716 18.1886 17.353 18.4286 17.083 18.4286H15.9173C15.6473 18.4286 15.4287 18.1886 15.4287 17.8886V10.8257Z" fill="#F0F3FA"/>
</g>
<defs>
<linearGradient id="paint0_linear_31_7566" x1="12" y1="0" x2="12" y2="24" gradientUnits="userSpaceOnUse">
<stop stop-color="#9F559B"/>
<stop offset="1" stop-color="#F70762"/>
</linearGradient>
<clipPath id="clip0_31_7566">
<rect width="24" height="24" fill="white"/>
</clipPath>
</defs>
</svg>

<svg xmlns="http://www.w3.org/2000/svg" width="24" height="24" fill="none" viewBox="0 0 24 24"><g clip-path="url(#a)"><path fill="url(#b)" d="M0 0h24v24H0z"/><path fill="#F0F3FA" d="M8.572 16.243V0H6.429v16.243a.48.48 0 0 0 .488.471h1.166a.48.48 0 0 0 .489-.471m4.345-7.672c-.27 0-.488.24-.488.536V19.18c0 .295.218.535.488.535h1.166c.27 0 .489-.24.489-.535V9.107c0-.296-.219-.536-.489-.536zm-3 1.286c-.27 0-.488.236-.488.532v8.365c0 .296.218.532.488.532h1.166c.27 0 .489-.236.489-.532V10.39c0-.296-.219-.532-.489-.532zm5.512.969c0-.3.218-.54.488-.54h1.166c.27 0 .489.24.489.54v7.063c0 .3-.219.54-.489.54h-1.166c-.27 0-.488-.24-.488-.54z"/></g><defs><linearGradient id="b" x1="12" x2="12" y1="0" y2="24" gradientUnits="userSpaceOnUse"><stop stop-color="#9F559B"/><stop offset="1" stop-color="#F70762"/></linearGradient><clipPath id="a"><path fill="#fff" d="M0 0h24v24H0z"/></clipPath></defs></svg>
